dist/svgs/org-book.svg

<svg xmlns="http://www.w3.org/2000/svg" viewBox="0 0 427 512"><path d="M392 0q11 0 18 7.5t7 18.5v460q0 11-7 18t-18 7H85q-32 0-54-22.5T9 434V77q0-32 22-54.5T85 0h307zm-13 396H85q-16 0-27 11t-11 27q0 17 11 28t27 11h294v-77zm0-358H85q-16 0-27 11.5T47 77v291q18-10 38-10h294V38zM141 299q-7-3-10-10.5t0-14.5l64-154q5-11 18-11t18 11l64 154q3 7 0 14.5T285 299q-3 1-8 1-12 0-18-12l-18-45h-56l-18 45q-4 8-11 11t-15 0zm60-94h24l-12-28z"/></svg>

<?xml version="1.0" encoding="UTF-8" standalone="no"?><svg   xmlns:svg="http://www.w3.org/2000/svg"   xmlns="http://www.w3.org/2000/svg"   version="1.1"   width="427"   height="512"   viewBox="0 0 427 512">  <path     d="M392 0Q403 0 410 7.5T417 26V383V486Q417 497 410 504T392 511H85Q53 511 31 488.5T9 434V77Q9 45 31 22.5T85 0H392zM379 396H85Q69 396 58 407T47 434Q47 451 58 462T85 473H379V396zM379 38H85Q69 38 58 49.5T47 77V368Q65 358 85 358H379V38zM141 299Q134 296 131 288.5T131 274L195 120Q200 109 213 109T231 120L295 274Q298 281 295 288.5T285 299Q282 300 277 300Q265 300 259 288L241 243H185L167 288Q163 296 156 299T141 299zM201 205H225L213 177z"     id="org-book" /></svg>
